X:9
T:Jackson's Favourite   Jig    Allan's   #9
C:Trad/Anon.
B:Allan's Irish Fiddler (pub. Mozart Allen,  Glascow) date unknown
Z:FROM ALLAN'S TO NOTEWORTHY, FROM NOTEWORTHY TO ABC, MIDI AND .TXT BY VINCE
BRENNAN Dec. 2002 (HTTP://WWW.SOSYOURMOM.COM)
I:abc2nwc
M:6/8
L:1/8
K:D
D|DFE EFE|DFA AFA|BAB def|gfg e2D|
DFE EFE|DFA AFA|BAB d2e|fdd d2:|
|:g|fed faf|ede fdB|AGA def|gfg e2a/2g/2|
fed faf|ede fdB|AFA d2e|fdd d2:|
